client/src/assets/images/icon-travel-white.svg

<svg fill="none" height="92" viewBox="0 0 92 92" width="92" xmlns="http://www.w3.org/2000/svg"><path d="m23.1526 52.298c-.5166.2019-.7445.7104-.5143 1.1449l2.3594 4.2206c.1159.2102.3274.3738.5874.4546.114.0344.2348.0522.3563.0522.152.0011.3021-.026.4404-.0782l17.8259-6.9385-1.6146 14.0682c-.0312.2769.0968.5492.3454.7342.7815.5391 1.7555.8461 2.7688.8737.2795-.0003.5573-.0295.8282-.087 1.4471-.3147 2.5692-1.3893 3.3346-3.2246l7.015-17.31 13.8933-5.4006c4.0896-1.5901 6.197-4.8145 4.7818-7.3311-.8032-1.3154-2.3416-2.2103-4.1001-2.3857-1.9538-.2457-3.9506.0104-5.7251.7345l-16.033 6.265-17.2382-5.6187c-2.1708-.6813-3.8902-.6638-5.0959.0616-1.0118.6918-1.5874 1.7316-1.5628 2.8221.0105.2766.1777.5325.4509.6906l11.6076 6.6495-6.6476 2.6215-11.1468-2.3596c-.4568-.0936-.9323.078-1.1638.4195l-2.7783 4.1678c-.1442.2209-.1668.483-.0621.7189.1041.2362.3254.4231.6075.5134l8.2523 2.8401zm4.8017-17.3796c.0618-.3694.286-.7057.6295-.9437.598-.3585 1.6885-.306 3.1458.1483l15.3513 4.9896-7.0048 2.7262zm-9.4367 12.6177 1.8244-2.7001 10.7269 2.2193c.2312.0487.4752.0303.6925-.052l34.8651-13.5705c1.3861-.5697 2.9471-.7771 4.4773-.5943 1.0732.0824 2.029.5984 2.5587 1.3805.88 1.5732-.8498 3.8712-3.7756 5.0071l-12.0794 4.719.7342-1.8094c.1855-.4654-.1176-.9684-.6761-1.1227-.5592-.1543-1.1624.0982-1.3476.5637l-8.6299 21.3993c-.5139 1.215-1.1536 1.9404-1.8665 2.0972-.4417.0709-.8988-.0014-1.2793-.2006l2.0973-18.3504c.0548-.4824-.3698-.9107-.9494-.9564-.5789-.0462-1.0928.3082-1.1479.7906l-.3248 2.8048-17.994 6.9905-1.4777-2.6215 2.9563-1.1531c.3806-.1399.6259-.4535.6259-.7996 0-.3465-.2453-.66-.6259-.7996z" fill="#fff"/></svg>

<svg width="92" height="92" viewBox="0 0 92 92" fill="none" xmlns="http://www.w3.org/2000/svg">
<path d="M23.1526 52.298C22.636 52.4999 22.4081 53.0084 22.6383 53.4429L24.9977 57.6635C25.1136 57.8737 25.3251 58.0373 25.5851 58.1181C25.6991 58.1525 25.8199 58.1703 25.9414 58.1703C26.0934 58.1714 26.2435 58.1443 26.3818 58.0921L44.2077 51.1536L42.5931 65.2218C42.5619 65.4987 42.6899 65.771 42.9385 65.956C43.72 66.4951 44.694 66.8021 45.7073 66.8297C45.9868 66.8294 46.2646 66.8002 46.5355 66.7427C47.9826 66.428 49.1047 65.3534 49.8701 63.5181L56.8851 46.2081L70.7784 40.8075C74.868 39.2174 76.9754 35.993 75.5602 33.4764C74.757 32.161 73.2186 31.2661 71.4601 31.0907C69.5063 30.845 67.5095 31.1011 65.735 31.8252L49.702 38.0902L32.4638 32.4715C30.293 31.7902 28.5736 31.8077 27.3679 32.5331C26.3561 33.2249 25.7805 34.2647 25.8051 35.3552C25.8156 35.6318 25.9828 35.8877 26.256 36.0458L37.8636 42.6953L31.216 45.3168L20.0692 42.9572C19.6124 42.8636 19.1369 43.0352 18.9054 43.3767L16.1271 47.5445C15.9829 47.7654 15.9603 48.0275 16.065 48.2634C16.1691 48.4996 16.3904 48.6865 16.6725 48.7768L24.9248 51.6169L23.1526 52.298ZM27.9543 34.9184C28.0161 34.549 28.2403 34.2127 28.5838 33.9747C29.1818 33.6162 30.2723 33.6687 31.7296 34.123L47.0809 39.1126L40.0761 41.8388L27.9543 34.9184ZM18.5176 47.5361L20.342 44.836L31.0689 47.0553C31.3001 47.104 31.5441 47.0856 31.7614 47.0033L66.6265 33.4328C68.0126 32.8631 69.5736 32.6557 71.1038 32.8385C72.177 32.9209 73.1328 33.4369 73.6625 34.219C74.5425 35.7922 72.8127 38.0902 69.8869 39.2261L57.8075 43.9451L58.5417 42.1357C58.7272 41.6703 58.4241 41.1673 57.8656 41.013C57.3064 40.8587 56.7032 41.1112 56.518 41.5767L47.8881 62.976C47.3742 64.191 46.7345 64.9164 46.0216 65.0732C45.5799 65.1441 45.1228 65.0718 44.7423 64.8726L46.8396 46.5222C46.8944 46.0398 46.4698 45.6115 45.8902 45.5658C45.3113 45.5196 44.7974 45.874 44.7423 46.3564L44.4175 49.1612L26.4235 56.1517L24.9458 53.5302L27.9021 52.3771C28.2827 52.2372 28.528 51.9236 28.528 51.5775C28.528 51.231 28.2827 50.9175 27.9021 50.7779L18.5176 47.5361Z" fill="#fff"/>
</svg>
